!!!COM: Haydn, Franz Joseph
!!!OTL: String Quartet in E-flat Major
!!!OPS: Opus 17
!!!ONM: No. 3
!!!OMD: Adatio
!!!OMV: 3
!!!SCT: H III:27
!!!SCA: Thematisch-bibliographisches Werkevererzeichnis (A. van Hoboken)
!!!YOR: Trautwein Edition
!!!ENC: Frances Bennion
!!!CDT: 1732/3/31/-1809/5/31/
!!!CNT: Oesterreich
!!!YEC: Copyright (c) 1994, 2000 Center for Computer Assisted Research in the Humanities
!!!YEM: Rights to all derivative editions reserved.
!!!YEM: Refer to licensing agreement for further details.
!!!YEN: United States of America
**kern	**kern	**kern	**kern
*k[b-e-a-d-]	*k[b-e-a-d-]	*k[b-e-a-d-]	*k[b-e-a-d-]
*A-:	*A-:	*A-:	*A-:
*clefF4	*clefC3	*clefG	*clefG
*M3/4	*M3/4	*M3/4	*M3/4
2AA-	[2.e-	2c	4ee-
.	.	.	8cc
.	.	.	8a-
4BB-	.	4d-	8g
.	.	.	8e-
=2	=2	=2	=2
2C	2e-]	[3..e-	4a-
.	.	.	4.A-
4C	8.a-	.	.
.	.	24e-]	.
.	.	8cc	8ee-
.	16g	.	.
=3	=3	=3	=3
2D-	2f	8.cc	8.ee-
.	.	32b-	32dd-
.	.	32cc	32ee-
.	.	8dd-	8ff
.	.	8b-	8dd-
4E-	4g	8b-	8dd-
.	.	8b-	8dd-
=4	=4	=4	=4
4.F	8.g	8.b-	8.dd-
.	16b-	16g	16b-
.	8a-	8a-	8cc
8C	8e-	8cc	8ee-
8C	8e-	8cc	8ee-
8C	8e-	8cc	8ee-
=5	=5	=5	=5
2D-	4f	8.cc	8.ee-
.	.	32b-	32dd-
.	.	32cc	32ee-
.	4F	8dd-	8ff
.	.	8f	8dd-
4E-	8G	8d-	8b-
.	8d-	8B-	8g
=6	=6	=6	=6
4.AA-	4d-	4B-	4g
.	4c	4c	4a-
8A-	.	.	.
8E-	4r	4r	4r
8C	.	.	.
=7	=7	=7	=7
2AA-	[2.E-	2c	4ee-
.	.	.	8cc
.	.	.	8a-
4BB-	.	4d-	8g
.	.	.	8e-
=8	=8	=8	=8
8C	8E-]	4e-	4a-
8C	8E-	.	.
8C	8E-	4.g-	4.A-
8C	8E-	.	.
8C	8E-	.	.
8C	8A-	8e-	8g-
=9	=9	=9	=9
8r	8r	8r	8e
8D-	8F	8A-	8f
8D-	8F	8A-	4f
8D-	8F	8A-	.
8D-	8F	8A-	8a-
8D-	8F	8A-	16g
.	.	.	16f
=10	=10	=10	=10
8r	8r	8r	8f
8C	8E-	8A-	8e-
8C	8E-	8A-	8e-
8C	8E-	8c	8a-
8C	8E-	8e-	8cc
8C	8E-	8cc	8ee-
=11	=11	=11	=11
8D-	2.F	8.cc	8.ee-
8D-	.	.	.
.	.	32b-	32dd-
.	.	32cc	32ee-
8D-	.	8dd-	8ff
8D-	.	8cc	8ee-
8D-	.	8b-	8dd-
8D	.	8a-	8cc
=12	=12	=12	=12
4.E-	2E-	4a-	4cc
.	.	4g	4b-
8E-	.	.	.
8BB-	4r	4r	4r
8GG	.	.	.
=13	=13	=13	=13
4EE-	2e-	4b-	[2.bb-
4E-	.	8g	.
.	.	8e-	.
4F	4f	8d	.
.	.	8B-	.
=14	=14	=14	=14
2G	4g	2e-	4bb-]
.	4b-	.	8gg
.	.	.	8ee-
4A-	4b-	4f	8dd
.	.	.	8b-
=15	=15	=15	=15
4G	[2.b-	4b-	4.ee-
4E-	.	8g	.
.	.	8e-	16gg
.	.	.	16ee-
4BB-	.	8d	8ff
.	.	8B-	16aa-
.	.	.	16ff
=16	=16	=16	=16
2EE-	2.b-_	8e-	8gg
.	.	8g	8bb-
.	.	8b-	8gg
.	.	8g	8ee-
4A-	.	8f	8dd
.	.	8d	8b-
=17	=17	=17	=17
8G	8b-]	8B-	2ee-
8G	8e-	8b-	.
8G	8e-	8b-	.
8G	8e-	8b-	.
8G	8d-	8b-	4ee
8G	8d-	8b-	.
=18	=18	=18	=18
4G	4d-	4b-	4ee
4A-	4c	4a-	8ff
.	.	.	8gg
8r	8r	8r	8aa-
8F	8c-	8a-	8dd
=19	=19	=19	=19
4F	4c-	4a-	4dd
4G-	4B-	4g-	8ee-
.	.	.	8ff
4r	4r	4r	8gg-
.	.	.	8ee-
=20	=20	=20	=20
8r	8r	8r	2.a
8E-	8c	8g-	.
8E-	8c	8g-	.
8E-	8c	8g-	.
8E-	8c	8g-	.
8E-	8c	8g-	.
=21	=21	=21	=21
8r	8r	8r	2.b-
8D	8B-	8f	.
8D	8B-	8f	.
8D	8B-	8f	.
8D	8B-	8f	.
8D	8B-	8f	.
=22	=22	=22	=22
8E-	8r	8r	2cc-
8E-	8G-	8g-	.
8E-	8G-	8g-	.
8E-	8G-	8g-	.
8E-	8G-	8cc-	4ee-
8E-	8G-	8cc-	.
=23	=23	=23	=23
8F	8A-	4cc-	4ee-
8F	8A-	.	.
8F	8A-	4b-	4dd-
8F	8A-	.	.
8F	8d-	4a-	4cc-
8F	8d-	.	.
=24	=24	=24	=24
8r	8r	8r	2.b-
8G-	8d-	8d-	.
8G-	8d-	8d-	.
8G-	8d-	8d-	.
8G-	8d-	8d-	.
8G-	8d-	8d-	.
=25	=25	=25	=25
8r	8r	8r	2.b--
8G-	8G-	8d-	.
8G-	8G-	8d-	.
8G-	8G-	8d-	.
8G-	8G-	8d-	.
8G-	8G-	8d-	.
=26	=26	=26	=26
8r	8r	8r	4ee--
8G-	8G-	8B--	.
8G-	8G-	8B--	4ff-
8G-	8G-	8B--	.
8G-	8G-	8B--	4dd
8G-	8G-	8B--	.
=27	=27	=27	=27
8r	8r	8r	8dd-
8G-	8e-	8A-	8cc
8G-	8e-	8A-	4.cc
8G-	8e-	8A-	.
8G-	8e-	8A-	.
8G-	8e-	8A-	8ee-
=28	=28	=28	=28
8r	8r	8r	8ee-
8F	8A-	8A-	8dd-
8F	8A-	8A-	4.dd-
8F	8d-	8A-	.
8F	8d-	8A-	.
8F	8d-	8A-	32cc
.	.	.	32dd-
.	.	.	32ee-
.	.	.	32dd-
=29	=29	=29	=29
2F	2d-	2A-	2aa-
4r	4r	4r	4ff
=30	=30	=30	=30
8r	8r	8r	8cc
8F	8d	8G	8b
8F	8d	8G	4.b
8F	8d	8G	.
8F	8d	8G	.
8F	8d	8G	8dd
=31	=31	=31	=31
8r	8r	8r	8dd
8E-	8G	8g	8cc
8E-	8c	8g	4.ee-
8E-	8c	8g	.
8C	8c	8g	.
8C	8c	8e-	8g
=32	=32	=32	=32
4C	4c	4e-	8.a-
.	.	.	32g
.	.	.	32a-
4D	4B-	4f	4.aa-
4r	4r	4r	.
.	.	.	8a-
=33	=33	=33	=33
4E-	4B-	8e-	8g
.	.	8gg	8bb-
4r	4r	8gg	8bb-
.	.	8gg	8bb-
4GG	4e-	8gg	8bb-
.	.	8gg	8bb-
=34	=34	=34	=34
2AA-	2c	8.gg	8.bb-
.	.	32ff	32aa-
.	.	32gg	32bb-
.	.	8aa-	8ccc
.	.	8ff	8aa-
4BB-	4B-	8ee-	8gg
.	.	8dd	8ff
=35	=35	=35	=35
4C	4A-	16ee-	[2.ee-
.	.	16a-	.
.	.	8a-	.
4BB-	4B-	16r	.
.	.	16g	.
.	.	8g	.
4AA-	4c	16r	.
.	.	16f	.
.	.	8f	.
=36	=36	=36	=36
4GG	4B-	8e-	8ee-]
.	.	8gg	8bb-
4r	4r	8gg	8bb-
.	.	8gg	8bb-
4G	4B-	8gg	8bb-
.	.	8gg	8bb-
=37	=37	=37	=37
2A-	2c	8.gg	8.bb-
.	.	32ff	32aa-
.	.	32gg	32bb-
.	.	8aa-	8ccc
.	.	8ff	8aa-
4B-	4B-	8ee-	8gg
.	.	8dd	8ff
=38	=38	=38	=38
4c	4a-	[2.ee-	16ee-
.	.	.	16aa-
.	.	.	8aa-
4B-	4b-	.	16r
.	.	.	16gg
.	.	.	8gg
4A-	4cc	.	16r
.	.	.	16ccc
.	.	.	8ccc
=39	=39	=39	=39
4G	4b-	4ee-]	16r
.	.	.	16bb-
.	.	.	16ccc
.	.	.	16ddd
4r	4r	4r	16eee-
.	.	.	16fff
.	.	.	16ggg
.	.	.	16aaa-
4G	4B-	[4ee-	16bbb-
.	.	.	16ggg
.	.	.	16fff
.	.	.	16eee-
=40	=40	=40	=40
8A-	8c	8ee-]	16ddd
.	.	.	16ccc
8A-	8A-	16cc	16aaa-
.	.	16ff	16fff
8B-	8B-	8ee-	2fff
8B-	8B-	8ee-	.
8BB-	8A-	8dd	.
8BB-	8A-	8dd	.
=41	=41	=41	=41
4E-	4G	4ee-	8eee-
.	.	.	8G
2r	2r	4.r	8B-
.	.	.	8e-
.	.	.	8g
.	.	8g	8b-
=42	=42	=42	=42
4EE-	4E-	8.g	8.b-
.	.	32a-	32cc
.	.	32f	32a-
4r	4r	8e-	8g
.	.	8c	8a-
4BB-	8D	8A-	8f
.	8F	8A-	8d
=43	=43	=43	=43
4E-	4E-	4G	8e-
.	.	.	8G
2r	2r	4.r	8B-
.	.	.	8e-
.	.	.	8g
.	.	8g	8b-
=44	=44	=44	=44
4EE-	4E-	8.g	8.b-
.	.	48cc	48ee-
.	.	48b-	48dd
.	.	48a-	48cc
4r	4r	8g	8b-
.	.	8c	8a-
4BB-	8D	8A-	8f
.	8F	8A-	8d
=45	=45	=45	=45
2EE-	4F	4A-	4d
.	4E-	4G	4e-
4r	4r	4r	4r
=46	=46	=46	=46
2E-	[2.B-	2g	4bb-
.	.	.	8gg
.	.	.	8ee-
4F	.	4a-	8dd
.	.	.	8b-
=47	=47	=47	=47
8G	8B-]	8b-	4ee-
8G	8B-	8b-	.
8G	8e-	8b-	4.e-
8G	8e-	8b-	.
8G	8e-	8b-	.
8G	8e-	8b-	8ee-
=48	=48	=48	=48
8F	8f	8a-	8ee-
8F	8f	8a-	8dd-
8F	8f	8a-	4.dd-
8F	8f	8a-	.
8F	8f	8a-	.
8F	8f	8a-	8dd-
=49	=49	=49	=49
8E	8e	8g	8dd-
8E	8e	8g	8cc
8E	8e	8c	4.gg
8E	8e	8c	.
8E	8e	8c	.
8E	8e	8c	8b-
=50	=50	=50	=50
8F	8f	8c	8a-
8F	8F	8c	16g
.	.	.	16f
8D-	8A-	8B	4.ff
8D-	8A-	8B	.
8D-	8A-	8B	.
8D-	8F	8f	8B
=51	=51	=51	=51
4C	2C	4f	4B
4C	.	4e	4c
4r	4r	4r	4r
=52	=52	=52	=52
8AA	8G-	8c	4ee-
8AA	8G-	8c	.
8AA	8G-	8c	8cc
8AA	8G-	8c	8a
8AA	8G-	8c	8g-
8AA	8G-	8c	8e-
=53	=53	=53	=53
8BB-	8F	8B-	8d-
8BB-	8F	8d-	16c
.	.	.	16B-
8BB-	8F	8d-	2B-
8BB-	8F	8d-	.
8BB-	8F	8d-	.
8BB-	8F	8d-	.
=54	=54	=54	=54
8GG	8F-	8B-	4dd-
8GG	8F-	8B-	.
8GG	8F-	8B-	8b-
8GG	8F-	8B-	8g
8GG	8F-	8B-	8f-
8GG	8F-	8B-	8d-
=55	=55	=55	=55
2AA-	[2.E-	2c	8c
.	.	.	8ee-
.	.	.	8cc
.	.	.	8a-
4BB-	.	4d-	8g
.	.	.	8e-
=56	=56	=56	=56
2C	4E-]	[3..e-	4a-
.	4e-	.	4.A-
4C	8.a-	.	.
.	.	24e-]	.
.	.	8cc	8ee-
.	16g	.	.
=57	=57	=57	=57
2D-	2f	8.cc	8.ee-
.	.	32b-	32dd-
.	.	32cc	32ee-
.	.	8dd-	8ff
.	.	8b-	8dd-
4E-	4g	8b-	8dd-
.	.	8b-	8dd-
=58	=58	=58	=58
4.F	8.g	8.b-	8.dd-
.	16b-	16g	16b-
.	8a-	8a-	8cc
8C	8A-	8e-	8ee-
8C	8A-	8a-	8ee-
8C	8A-	8g	8ee-
=59	=59	=59	=59
2D-	2A-	2.f	8.ee-
.	.	.	32dd-
.	.	.	32ee-
.	.	.	8ff
.	.	.	8dd-
4D	[4B-	.	8b-
.	.	.	8a-
=60	=60	=60	=60
8E-	8B-]	8e-	2.ee-
8E-	8e-	8g	.
8E-	8e-	8g	.
8E-	8e-	8g	.
8E-	8e-	8g	.
8E-	8e-	8g	.
=61	=61	=61	=61
8E-	8d	8a-	2.ff-
8E-	8d	8b-	.
8E-	8d-	8b-	.
8E-	8d-	8b-	.
8E-	8d-	8b-	.
8E-	8d-	8b-	.
=62	=62	=62	=62
8E-	8d-	8g	2.ee-
8E-	8d-	8g	.
8E-	8c	8a-	.
8E-	8c	8a-	.
8E-	8c-	8a-	.
8E-	8c-	8a-	.
=63	=63	=63	=63
8E-	8c-	8f	2.dd-
8E-	8c-	8f	.
8E-	8B-	8g	.
8E-	8B-	8g	.
8E-	8B-	8g	.
8E-	8B-	8g	.
=64	=64	=64	=64
8A-	8A-	8e-	8cc-
8A-	8c-	8e-	8ee-
8A-	8c-	8e-	8cc-
8A-	8c-	8e-	8a-
8A-	8c-	8e-	8e-
8A-	8c-	8e-	8ee-
=65	=65	=65	=65
8G	8B-	8e-	8ee-
8G	8B-	8e-	8dd-
8G	8d-	8e-	8b-
8G	8d-	8e-	8g
8G	8d-	8e-	8e-
8G	8B-	8e-	8dd-
=66	=66	=66	=66
8A-	8A-	8e-	8cc-
8A-	8c-	8e-	8ee-
8A-	8c-	8e-	8cc-
8A-	8c-	8e-	8a-
8A-	8c-	8e-	16e-
.	.	.	16a-
8A-	8c-	8e-	16cc-
.	.	.	16ee-
=67	=67	=67	=67
8G	8B-	8e-	8ee-
8G	8B-	8e-	8dd-
8G	8d-	8e-	8b-
8G	8d-	8e-	8g
8G	8d-	8e-	16e-
.	.	.	16g
8G	8B-	8e-	16b-
.	.	.	16dd-
=68	=68	=68	=68
8A-	8A-	8e-	8cc-
8A-	8c-	8cc-	8ff-
8A-	8c-	8cc-	8ff-
8A-	8c-	8cc-	8ff-
8A-	8c-	8cc-	8ff-
8G-	8e-	8b--	8gg-
=69	=69	=69	=69
8.F-	8f-	8.a-	8.aa-
.	8c-	.	.
16G-	.	16b--	16gg-
8A-	8c-	8cc-	8ff-
8A-	8c-	8cc-	8ff-
8A-	8c-	8cc-	8ff-
8G-	8e-	8cc-	8gg-
=70	=70	=70	=70
8.F-	8f-	8.a-	8.aa-
.	8c-	.	.
16G-	.	16a	16gg-
8A-	8c-	8b	8ff-
8A-	8f-	8b	8ff-
8A-	8f-	8b	8ff-
8A-	8f-	8b	8ee-
=71	=71	=71	=71
8A-	8f	8b-	8ee-
8A-	8f	8b-	8dd
8A-	8f	8b-	4.dd
8A-	8f	8b-	.
8A-	8f	8b-	.
8A-	8f	8b-	8ff
=72	=72	=72	=72
4G	4B-	4b-	8ff
.	.	.	8ee-
4G	4B-	4ee-	4.ddd-
4r	4r	4r	.
.	.	.	8dd-
=73	=73	=73	=73
4AA-	4A-	8A-	8cc
.	.	8cc	8ee-
4r	4r	8cc	8ee-
.	.	8cc	8ee-
4C	4a-	8cc	8ee-
.	.	8cc	8ee-
=74	=74	=74	=74
2D-	2f	8.cc	8.ee-
.	.	32b-	32dd-
.	.	32cc	32ee-
.	.	8dd-	8ff
.	.	8b-	8dd-
4E-	4e-	8a-	8cc
.	.	8g	8b-
=75	=75	=75	=75
4F	4d-	16a-	[2.a-
.	.	16dd-	.
.	.	8dd-	.
4E-	4e-	16r	.
.	.	16cc	.
.	.	8cc	.
4D-	4f	16r	.
.	.	16b-	.
.	.	8b-	.
=76	=76	=76	=76
4C	4e-	8a-	8a-]
.	.	8cc	8ee-
4r	4r	8cc	8ee-
.	.	8cc	8ee-
4C	4a-	8cc	8ee-
.	.	8cc	8ee-
=77	=77	=77	=77
2D-	2f	8.cc	8.ee-
.	.	32b-	32dd-
.	.	32cc	32ee-
.	.	8dd-	8ff
.	.	8b-	8dd-
4E-	4e-	8a-	8cc
.	.	8g	8b-
=78	=78	=78	=78
4F	4d-	[2.a-	16a-
.	.	.	16dd-
.	.	.	8dd-
4E-	4e-	.	16r
.	.	.	16cc
.	.	.	8cc
4D-	4f	.	16r
.	.	.	16ff
.	.	.	8ff
=79	=79	=79	=79
4C	4e-	4a-]	16r
.	.	.	16ee-
.	.	.	16ff
.	.	.	16gg
4r	4r	4r	16aa-
.	.	.	16bb-
.	.	.	16ccc
.	.	.	16ddd-
4C	4e-	[4a-	16eee-
.	.	.	16ccc
.	.	.	16bb-
.	.	.	16aa-
=80	=80	=80	=80
8D-	8f	8a-]	16gg
.	.	.	16ff
8D-	8d-	16f	16ddd-
.	.	16b-	16bb-
8E-	8e-	8a-	2bb-
8E-	8e-	8a-	.
8E-	8d-	8g	.
8E-	8d-	8g	.
=81	=81	=81	=81
4AA-	4c	4a-	8aa-
.	.	.	8c
2r	2r	4.r	8e-
.	.	.	8a-
.	.	.	8cc
.	.	8cc	8ee-
=82	=82	=82	=82
4AA-	4A-	8.cc	8.ee-
.	.	32dd-	32ff
.	.	32b-	32dd-
4r	4r	8a-	8cc
.	.	8f	8dd-
4E-	8G	8d-	8b-
.	8d-	8B-	8g
=83	=83	=83	=83
4AA-	4c	4c	8a-
.	.	.	8c
2r	2r	4.r	8e-
.	.	.	8a-
.	.	.	8cc
.	.	8cc	8ee-
=84	=84	=84	=84
4AA-	4A-	8.cc	8.ee-
.	.	32ff	32aa-
.	.	32dd-	32ff
4r	4r	8cc	8ee-
.	.	8f	8dd-
4EE-	8G	8d-	8b-
.	8d-	8B-	8g
=85	=85	=85	=85
2AA-	4d-	4B-	4g
.	4c	4c	4a-
4r	4r	4r	4r
==	==	==	==
*-	*-	*-	*-
!!!RWG1: This file contains only pitch and duration data.
!!!RWG2: Transposing instruments are not transposed.
!!!RWG3: Spines may have incompatible meters.
!!!RWG4: Durations of rests and tied notes may be interpreted.
!!!RWG: Key is interpreted using the Humdrum key tool.
!!!GTL: 6 Divertimentos
!!!AFT: stage1
!!!END: 1997/04/15
!!!KEY: 4167874990
!!!EMD: Converted from MuseData to Humdrum Dec 16, 2000, by Andreas Kornstaedt using muse2kern.
!!!EMD: Manual editing by Craig Sapp, Nov 2001
